X: 1
T:House Party, The
T:Johnny O'Leary's Slide
T:Toormore Slide, The
R:slide
H:See also #28
Z:id:hn-slide-36
M:6/8
K:Bm
F2B BAB|d2e f2d|e2e efe|c2e a3|
F2B BAB|d2e f2d|e2d B2A|1 B3 BAG:|2 B3 d2e||
fgf efe|ded cdc|B2e edB|A2F F2E|
F2B BAB|d2e f2d|e2d B2A|1 B3 d2e:|2 B3 BAG||
